images/icons/apple.svg

<svg fill="none" height="24" viewBox="0 0 24 24" width="24" xmlns="http://www.w3.org/2000/svg" xmlns:xlink="http://www.w3.org/1999/xlink"><clipPath id="a"><path d="m0 0h24v24h-24z"/></clipPath><g clip-path="url(#a)"><path d="m21.3613 8.1816c-.1425.108-2.6582 1.4928-2.6582 4.572 0 3.5616 3.2011 4.8216 3.2969 4.8528-.0147.0768-.5085 1.7256-1.6878 3.4056-1.0514 1.4784-2.1496 2.9544-3.8201 2.9544-1.6706 0-2.1005-.948-4.029-.948-1.8794 0-2.54761.9792-4.07568.9792s-2.59427-1.368-3.82017-3.048c-1.41997-1.9728-2.56725-5.0376-2.56725-7.9464 0-4.6656 3.10527-7.14 6.16141-7.14 1.62387 0 2.97749 1.0416 3.99709 1.0416.9704 0 2.4837-1.104 4.3311-1.104.7002 0 3.2158.0624 4.8717 2.3808zm-5.7487-4.356c.764-.8856 1.3045-2.1144 1.3045-3.3432 0-.1704-.0148-.3432-.0467-.4824-1.2431.0456-2.722.8088-3.6138 1.8192-.7002.7776-1.3536 2.0064-1.3536 3.252 0 .1872.0319.3744.0466.4344.0787.0144.2064.0312.3341.0312 1.1154 0 2.5182-.7296 3.3289-1.7112z" fill="#fff"/></g></svg>

<svg width="24" height="24" viewBox="0 0 24 24" fill="none" xmlns="http://www.w3.org/2000/svg">
<g clip-path="url(#clip0_1432_8529)">
<path d="M21.3613 8.1816C21.2188 8.2896 18.7031 9.6744 18.7031 12.7536C18.7031 16.3152 21.9042 17.5752 22 17.6064C21.9853 17.6832 21.4915 19.332 20.3122 21.012C19.2608 22.4904 18.1626 23.9664 16.4921 23.9664C14.8215 23.9664 14.3916 23.0184 12.4631 23.0184C10.5837 23.0184 9.91549 23.9976 8.38742 23.9976C6.85935 23.9976 5.79315 22.6296 4.56725 20.9496C3.14728 18.9768 2 15.912 2 13.0032C2 8.3376 5.10527 5.8632 8.16141 5.8632C9.78528 5.8632 11.1389 6.9048 12.1585 6.9048C13.1289 6.9048 14.6422 5.8008 16.4896 5.8008C17.1898 5.8008 19.7054 5.8632 21.3613 8.1816ZM15.6126 3.8256C16.3766 2.94 16.9171 1.7112 16.9171 0.4824C16.9171 0.312 16.9023 0.1392 16.8704 0C15.6273 0.0456 14.1484 0.8088 13.2566 1.8192C12.5564 2.5968 11.903 3.8256 11.903 5.0712C11.903 5.2584 11.9349 5.4456 11.9496 5.5056C12.0283 5.52 12.156 5.5368 12.2837 5.5368C13.3991 5.5368 14.8019 4.8072 15.6126 3.8256Z" fill="white"/>
</g>
<defs>
<clipPath id="clip0_1432_8529">
<rect width="24" height="24" fill="white"/>
</clipPath>
</defs>
</svg>
